; generated by SuperSlicer 2.7.61.6 on 2026-01-14 at 04:01:35 UTC

; 

; external perimeters extrusion width = 0.63mm
; perimeters extrusion width = 0.68mm
; infill extrusion width = 0.68mm
; solid infill extrusion width = 0.68mm
; top infill extrusion width = 0.63mm
; first layer extrusion width = 0.60mm

M73 P0 R2
M107
;TYPE:Custom
; custom gcode: start_gcode
M104 S0 ; Stops SuperSlicer from sending temp waits separately
M140 S0
PRINT_START BED_TEMP=65 HOTEND_TEMP=220
; custom gcode end: start_gcode

G21 ; set units to millimeters
G90 ; use absolute coordinates
M82 ; use absolute distances for extrusion
G92 E0
; custom gcode: start_filament_gcode
; Filament gcode
; custom gcode end: start_filament_gcode
;LAYER_CHANGE
;Z:0.450624
;HEIGHT:0.450624
; custom gcode: before_layer_gcode
TIMELAPSE_TAKE_FRAME
; custom gcode end: before_layer_gcode

G1 Z.450624 F12000
M104 S220
G10 ; retract
G1 X55.999 Y65.771
M73 P15 R1
G11 ; unretract
;TYPE:External perimeter
;WIDTH:0.608476
G1 F5203.449
M73 P16 R1
G3 X55.906 Y65.883 I-.418 J-.25 E.01396
G3 X55.156 Y66.28 I-1.137 J-1.241 E.09628
G3 X54.314 Y66.294 I-.549 J-7.489 E.17708
;WIDTH:0.647588
G1 F4834.011
G1 X45.518 Y66.29 E1.0848
;WIDTH:0.6
G1 F5291.08
G3 X44.712 Y66.245 I-.196 J-3.72 E1.16107
G1 X44.347 Y66.088 E1.19861
G1 X43.998 Y65.774 E1.24284
G1 X43.912 Y65.596 E1.26147
;WIDTH:0.661883
G1 F4711.745
G3 X43.821 Y65.28 I.421 J-.293 E1.29689
;WIDTH:0.715323
G1 F4304.715
G1 X43.815 Y65.143 E1.31283
;WIDTH:0.768763
G1 F3962.418
G1 X43.809 Y65.005 E1.33015
;WIDTH:0.801446
G1 F3778.657
G1 X43.79 Y64.32 E1.42068
G1 X43.8 Y57.025 E2.38388
G1 X43.78 Y56.896 E2.40101
;WIDTH:0.751084
G1 F4069.465
G1 X43.76 Y56.768 E2.41691
;WIDTH:0.700723
G1 F4408.767
G1 X43.74 Y56.64 E2.43159
;WIDTH:0.650361
G1 F4809.795
G1 X43.72 Y56.512 E2.44505
;WIDTH:0.6
G1 F5291.08
G1 X43.7 Y56.384 E2.45728
G1 X43.702 Y55.06 E2.58214
G3 X43.953 Y54.291 I1.5 J.065 E2.65934
G1 X44.268 Y53.96 E2.70241
G3 X45.106 Y53.692 I.984 J1.633 E2.78613
G1 X55.053 Y53.702 E3.72409
G3 X55.943 Y54.15 I-.294 J1.692 E3.81941
G3 X56.231 Y54.698 I-1.038 J.896 E3.87824
G1 X56.298 Y55.09 E3.91576
G1 X56.289 Y56.331 E4.03281
;WIDTH:0.641728
G1 F4885.985
G1 X56.26 Y56.82 E4.08278
;WIDTH:0.691454
G1 F4477.473
G1 X56.242 Y56.974 E4.10013
;WIDTH:0.74118
G1 F4132.002
G1 X56.223 Y57.129 E4.11893
;WIDTH:0.798735
G1 F3793.249
G1 X56.205 Y57.284 E4.13942
G1 X56.21 Y64.324 E5.06541
G1 X56.194 Y64.853 E5.13497
M73 P17 R1
;WIDTH:0.731449
G1 F4195.352
G3 X56.138 Y65.393 I-1.417 J.127 E5.19999
;WIDTH:0.687632
G1 F4506.43
G1 X56.096 Y65.515 E5.21425
;WIDTH:0.643816
G1 F4867.335
G1 X56.054 Y65.637 E5.22746
;WIDTH:0.608476
G1 F5203.449
G3 X55.999 Y65.771 I-.473 J-.116 E5.24141
;SEAM:55.999:65.771
G1 X55.437 Y64.811 F12000
;WIDTH:0.790907
G1 F3836.022
G1 X55.512 Y64.325 E5.30546
G1 X55.51 Y57.284 E6.22117
G1 X55.466 Y57.154 E6.23898
;WIDTH:0.74118
G1 F4132.002
G1 X55.421 Y57.025 E6.25552
;WIDTH:0.691454
G1 F4477.473
G1 X55.376 Y56.896 E6.27078
;WIDTH:0.641728
G1 F4885.985
G2 X55.247 Y56.627 I-.822 J.231 E6.30133
;WIDTH:0.6
G1 F5291.08
G2 X54.467 Y55.965 I-1.28 J.716 E6.3999
G1 X54.024 Y55.889 E6.44227
G1 X45.976 Y55.889 E7.20109
G2 X45.018 Y56.28 I.065 J1.53 E7.30061
G1 X44.911 Y56.427 E7.31786
;WIDTH:0.640051
G1 F4901.059
G1 X44.803 Y56.575 E7.33648
;WIDTH:0.680103
G1 F4564.59
G1 X44.695 Y56.723 E7.35648
;WIDTH:0.720155
G1 F4271.352
G2 X44.54 Y57.021 I.464 J.43 E7.39615
;WIDTH:0.794372
G1 F3816.97
G1 X44.494 Y57.171 E7.4167
G1 X44.488 Y64.32 E8.35115
G1 X44.517 Y64.528 E8.37853
;WIDTH:0.838944
G1 F3587.759
G1 X44.546 Y64.735 E8.40766
;WIDTH:0.822203
G1 F3670.546
G1 X44.619 Y64.861 E8.42736
;WIDTH:0.705588
G1 F4373.54
G1 X44.872 Y65.155 E8.47163
;WIDTH:0.6
G1 F5291.08
G2 X45.297 Y65.52 I1.054 J-.795 E8.52492
;WIDTH:0.644198
G1 F4863.942
G1 X45.522 Y65.666 E8.55236
G1 X45.976 Y65.738 E8.59955
G1 X54.02 Y65.738 E9.42459
G1 X54.277 Y65.677 E9.45171
;WIDTH:0.6
G1 F5291.08
G2 X55.049 Y65.242 I-.2 J-1.257 E9.53706
;WIDTH:0.660031
G1 F4727.235
G1 X55.29 Y64.991 E9.57371
;WIDTH:0.711442
G1 F4331.892
G1 X55.339 Y64.931 E9.58264
;WIDTH:0.790907
G1 F3836.022
G1 X55.437 Y64.811 E9.60281
;SEAM:55.437:64.811
G1 X55.859 Y65.273 F12000
;TYPE:Gap fill
;WIDTH:0.611785
G1 F3990.189
G1 X55.559 Y65.485 E9.63769
;WIDTH:0.684421
G1 F3490.171
G1 X55.373 Y65.644 E9.66431
;WIDTH:0.663948
G1 F3617.954
M73 P18 R1
G1 X55.318 Y65.68 E9.67115
;WIDTH:0.637802
G1 F3795.422
G1 X55.263 Y65.715 E9.67767
;WIDTH:0.611657
G1 F3991.198
G1 X55.208 Y65.75 E9.68387
;WIDTH:0.585511
G1 F4208.269
G1 X55.154 Y65.786 E9.68975
;WIDTH:0.559365
G1 F4450.311
G1 X55.099 Y65.821 E9.69531
;WIDTH:0.535534
G1 F4696.521
G1 X55.029 Y65.848 E9.70137
;WIDTH:0.462419
G1 F5656.677
G1 X54.8 Y65.914 E9.7173
;WIDTH:0.329563
G1 F9000
G1 X54.519 Y65.962 E9.7293
G92 E0
G10 ; retract
G1 X45.032 Y66.022 F12000
G11 ; unretract
;WIDTH:0.683325
G1 F3548.736
G1 X44.887 Y65.878 E.02183
;WIDTH:0.580576
G1 F4328.984
G1 X44.756 Y65.741 E.03841
;WIDTH:0.660106
G1 F3699.413
G1 X44.693 Y65.693 E.04652
;WIDTH:0.692246
G1 F3494.057
G1 X44.63 Y65.644 E.05511
;WIDTH:0.724386
G1 F3310.3
G1 X44.568 Y65.596 E.06418
;WIDTH:0.756527
G1 F3144.906
G1 X44.505 Y65.548 E.07372
;WIDTH:0.724999
G1 F3306.986
G1 X44.341 Y65.384 E.10028
;WIDTH:0.592519
G1 F4221.108
G1 X44.118 Y65.198 E.12636
G92 E0
G10 ; retract
G1 X43.877 Y55.467 F12000
G11 ; unretract
;TYPE:Solid infill
;WIDTH:0.54734
G1 F5800.137
G1 X44.61 Y56.2 E.08916
G1 X44.824 Y55.922 E.11928
G1 X44.965 Y55.842 E.13321
G1 X44.096 Y54.974 E.23887
G3 X44.313 Y54.479 I1.105 J.189 E.28581
G1 X45.42 Y55.586 E.42043
G1 X46.042 Y55.496 E.47452
G1 X44.727 Y54.181 E.63454
G1 X44.875 Y54.115 E.64845
G1 X45.372 Y54.114 E.69122
G1 X46.755 Y55.497 E.85942
G1 X47.467 Y55.497 E.92069
G1 X46.082 Y54.113 E1.08914
G1 X46.792 Y54.111 E1.15024
G1 X48.179 Y55.498 E1.31893
G1 X48.892 Y55.499 E1.3802
G1 X47.503 Y54.11 E1.54912
G1 X48.213 Y54.108 E1.61022
G1 X49.604 Y55.499 E1.77939
G1 X50.316 Y55.5 E1.84066
G1 X48.923 Y54.107 E2.01007
G1 X49.634 Y54.106 E2.07117
G1 X51.028 Y55.5 E2.24081
G1 X51.741 Y55.501 E2.30208
M73 P19 R1
G1 X50.344 Y54.104 E2.47197
G1 X51.054 Y54.103 E2.53307
G1 X52.453 Y55.501 E2.7032
G1 X53.165 Y55.502 E2.76447
G1 X51.765 Y54.101 E2.93484
G1 X52.475 Y54.1 E2.99594
G1 X53.878 Y55.502 E3.16655
G3 X54.603 Y55.594 I.034 J2.646 E3.22963
G1 X54.785 Y55.698 E3.24772
G1 X53.186 Y54.098 E3.44235
G1 X53.896 Y54.097 E3.50345
G1 X55.906 Y56.108 E3.74803
G1 X55.906 Y55.395 E3.80931
G1 X54.606 Y54.096 E3.96739
G3 X55.319 Y54.179 I.165 J1.678 E4.02964
G3 X56.096 Y54.874 I-2.442 J3.512 E4.1195
G92 E0
G10 ; retract
G1 X64.268 Y53.96 F12000
G11 ; unretract
;TYPE:External perimeter
;WIDTH:0.6
G1 F5291.08
G3 X65.106 Y53.692 I.984 J1.633 E.08372
G1 X75.053 Y53.702 E1.02168
G3 X75.943 Y54.15 I-.294 J1.692 E1.117
G3 X76.231 Y54.698 I-1.038 J.896 E1.17583
G1 X76.298 Y55.09 E1.21335
G1 X76.289 Y56.331 E1.3304
;WIDTH:0.641728
G1 F4885.985
G1 X76.26 Y56.82 E1.38037
;WIDTH:0.691454
G1 F4477.473
G1 X76.242 Y56.974 E1.39772
;WIDTH:0.74118
G1 F4132.002
G1 X76.223 Y57.129 E1.41652
;WIDTH:0.798735
G1 F3793.249
G1 X76.205 Y57.284 E1.43701
G1 X76.21 Y64.324 E2.363
G1 X76.194 Y64.853 E2.43256
M73 P20 R1
;WIDTH:0.731449
G1 F4195.352
G3 X76.138 Y65.393 I-1.417 J.127 E2.49758
;WIDTH:0.687632
G1 F4506.43
G1 X76.096 Y65.515 E2.51184
;WIDTH:0.643816
G1 F4867.335
G1 X76.054 Y65.637 E2.52505
;WIDTH:0.608476
G1 F5203.449
G3 X75.906 Y65.883 I-.473 J-.116 E2.55296
G3 X75.156 Y66.28 I-1.137 J-1.241 E2.63528
G3 X74.314 Y66.294 I-.549 J-7.489 E2.71608
;WIDTH:0.647588
G1 F4834.011
G1 X65.518 Y66.29 E3.62381
;WIDTH:0.6
G1 F5291.08
G3 X64.712 Y66.245 I-.196 J-3.72 E3.70008
G1 X64.347 Y66.088 E3.73761
G1 X63.998 Y65.774 E3.78184
G1 X63.912 Y65.596 E3.80048
;WIDTH:0.661883
G1 F4711.745
G3 X63.821 Y65.28 I.421 J-.293 E3.83589
;WIDTH:0.715323
G1 F4304.715
G1 X63.815 Y65.143 E3.85183
;WIDTH:0.768763
G1 F3962.418
G1 X63.809 Y65.005 E3.86915
;WIDTH:0.801446
G1 F3778.657
G1 X63.79 Y64.32 E3.95968
G1 X63.8 Y57.025 E4.92288
G1 X63.78 Y56.896 E4.94001
;WIDTH:0.751084
G1 F4069.465
G1 X63.76 Y56.768 E4.95592
;WIDTH:0.700723
G1 F4408.767
G1 X63.74 Y56.64 E4.9706
;WIDTH:0.650361
G1 F4809.795
G1 X63.72 Y56.512 E4.98405
;WIDTH:0.6
G1 F5291.08
G1 X63.7 Y56.384 E4.99628
G1 X63.702 Y55.06 E5.12114
G3 X63.953 Y54.291 I1.5 J.065 E5.19834
G1 X64.268 Y53.96 E5.24141
;SEAM:64.268:53.96
G92 E0
G10 ; retract
G1 X64.695 Y56.723 F12000
G11 ; unretract
;WIDTH:0.720155
G1 F4271.352
G2 X64.54 Y57.021 I.464 J.43 E.03968
;WIDTH:0.794372
G1 F3816.97
G1 X64.494 Y57.171 E.06022
G1 X64.488 Y64.32 E.99468
G1 X64.517 Y64.528 E1.02205
;WIDTH:0.838944
G1 F3587.759
G1 X64.546 Y64.735 E1.05118
;WIDTH:0.822203
G1 F3670.546
G1 X64.619 Y64.861 E1.07088
;WIDTH:0.705588
G1 F4373.54
G1 X64.872 Y65.155 E1.11516
;WIDTH:0.6
G1 F5291.08
G2 X65.297 Y65.52 I1.054 J-.795 E1.16844
;WIDTH:0.644198
G1 F4863.942
G1 X65.522 Y65.666 E1.19588
G1 X65.976 Y65.738 E1.24307
G1 X74.02 Y65.738 E2.06811
M73 P21 R1
G1 X74.277 Y65.677 E2.09523
;WIDTH:0.6
G1 F5291.08
G2 X75.049 Y65.242 I-.2 J-1.257 E2.18058
;WIDTH:0.660031
G1 F4727.235
G1 X75.29 Y64.991 E2.21723
;WIDTH:0.711442
G1 F4331.892
G1 X75.339 Y64.931 E2.22616
;WIDTH:0.790907
G1 F3836.022
G1 X75.437 Y64.811 E2.24633
G1 X75.512 Y64.325 E2.31038
G1 X75.51 Y57.284 E3.22609
G1 X75.466 Y57.154 E3.2439
;WIDTH:0.74118
G1 F4132.002
G1 X75.421 Y57.025 E3.26044
;WIDTH:0.691454
G1 F4477.473
G1 X75.376 Y56.896 E3.2757
;WIDTH:0.641728
G1 F4885.985
G2 X75.247 Y56.627 I-.822 J.231 E3.30625
;WIDTH:0.6
G1 F5291.08
G2 X74.467 Y55.965 I-1.28 J.716 E3.40482
G1 X74.024 Y55.889 E3.44719
G1 X65.976 Y55.889 E4.20601
G2 X65.018 Y56.28 I.065 J1.53 E4.30552
G1 X64.911 Y56.427 E4.32277
;WIDTH:0.640051
G1 F4901.059
G1 X64.803 Y56.575 E4.3414
;WIDTH:0.680103
G1 F4564.59
G1 X64.695 Y56.723 E4.36139
;SEAM:64.695:56.723
G1 X63.877 Y55.467 F12000
;TYPE:Solid infill
;WIDTH:0.54734
G1 F5800.137
G1 X64.61 Y56.2 E4.45056
G1 X64.824 Y55.922 E4.48067
G1 X64.965 Y55.842 E4.49461
G1 X64.096 Y54.974 E4.60027
G3 X64.313 Y54.479 I1.105 J.189 E4.64721
G1 X65.42 Y55.586 E4.78182
G1 X66.042 Y55.496 E4.83592
G1 X64.727 Y54.181 E4.99593
G1 X64.875 Y54.115 E5.00985
G1 X65.372 Y54.114 E5.05261
G1 X66.755 Y55.497 E5.22082
G1 X67.467 Y55.497 E5.28209
G1 X66.082 Y54.113 E5.45053
G1 X66.792 Y54.111 E5.51163
G1 X68.179 Y55.498 E5.68032
G1 X68.892 Y55.499 E5.74159
M73 P22 R1
G1 X67.503 Y54.11 E5.91052
G1 X68.213 Y54.108 E5.97162
G1 X69.604 Y55.499 E6.14078
G1 X70.316 Y55.5 E6.20205
G1 X68.923 Y54.107 E6.37146
G1 X69.634 Y54.106 E6.43256
G1 X71.028 Y55.5 E6.60221
G1 X71.741 Y55.501 E6.66348
G1 X70.344 Y54.104 E6.83337
G1 X71.054 Y54.103 E6.89447
G1 X72.453 Y55.501 E7.06459
G1 X73.165 Y55.502 E7.12586
G1 X71.765 Y54.101 E7.29623
G1 X72.475 Y54.1 E7.35733
G1 X73.878 Y55.502 E7.52794
G3 X74.603 Y55.594 I.034 J2.646 E7.59102
G1 X74.785 Y55.698 E7.60911
G1 X73.186 Y54.098 E7.80374
G1 X73.896 Y54.097 E7.86484
G1 X75.906 Y56.108 E8.10942
G1 X75.906 Y55.395 E8.1707
G1 X74.606 Y54.096 E8.32879
G3 X75.319 Y54.179 I.165 J1.678 E8.39103
G3 X76.096 Y54.874 I-2.442 J3.512 E8.48089
G92 E0
G10 ; retract
G1 X75.859 Y65.273 F12000
G11 ; unretract
;TYPE:Gap fill
;WIDTH:0.611785
G1 F3990.189
G1 X75.559 Y65.485 E.03489
;WIDTH:0.684421
G1 F3490.171
G1 X75.373 Y65.644 E.0615
;WIDTH:0.663948
G1 F3617.954
G1 X75.318 Y65.68 E.06834
;WIDTH:0.637802
G1 F3795.422
G1 X75.263 Y65.715 E.07486
;WIDTH:0.611657
G1 F3991.198
G1 X75.208 Y65.75 E.08106
;WIDTH:0.585511
G1 F4208.269
G1 X75.154 Y65.786 E.08695
;WIDTH:0.559365
G1 F4450.311
G1 X75.099 Y65.821 E.09251
;WIDTH:0.535534
G1 F4696.521
G1 X75.029 Y65.848 E.09856
;WIDTH:0.462419
G1 F5656.677
G1 X74.8 Y65.914 E.11449
;WIDTH:0.329563
G1 F9000
G1 X74.519 Y65.962 E.12649
G92 E0
G10 ; retract
G1 X65.032 Y66.022 F12000
G11 ; unretract
;WIDTH:0.683325
G1 F3548.736
M73 P23 R1
G1 X64.887 Y65.878 E.02183
;WIDTH:0.580576
G1 F4328.984
G1 X64.756 Y65.741 E.03841
;WIDTH:0.660106
G1 F3699.413
G1 X64.693 Y65.693 E.04652
;WIDTH:0.692246
G1 F3494.057
G1 X64.63 Y65.644 E.05511
;WIDTH:0.724386
G1 F3310.3
G1 X64.568 Y65.596 E.06418
;WIDTH:0.756527
G1 F3144.906
G1 X64.505 Y65.548 E.07372
;WIDTH:0.724999
G1 F3306.986
G1 X64.341 Y65.384 E.10028
;WIDTH:0.592519
G1 F4221.108
G1 X64.118 Y65.198 E.12636
M106 S255
;LAYER_CHANGE
;Z:0.888123
;HEIGHT:0.437499
; custom gcode: before_layer_gcode
TIMELAPSE_TAKE_FRAME
; custom gcode end: before_layer_gcode

G1 Z.888123 F12000

M140 S50
G92 E0
G10 ; retract
G1 X56.289 Y65.036
G1 X55.938 Y65.836
G1 X55.924 Y65.849
G1 X55.923 Y65.848
G11 ; unretract
;TYPE:Perimeter
;WIDTH:0.674999
M106 S84.15
G1 F4720.034
G3 X55.228 Y66.269 I-1.196 J-1.192 E.08673
G1 X54.861 Y66.312 E.12573
G1 X54.2 Y66.24 E.19606
G2 X55.364 Y65.602 I-1.047 J-3.291 E.33722
G2 X55.772 Y64.897 I-1.774 J-1.497 E.4237
G1 X55.845 Y64.317 E.48558
G1 X55.843 Y57.288 E1.22845
G1 X55.769 Y56.695 E1.29169
G2 X55.128 Y55.795 I-1.789 J.597 E1.41017
G1 X54.609 Y55.513 E1.47258
G1 X54.016 Y55.415 E1.53618
G1 X45.984 Y55.415 E2.3851
G2 X45.275 Y55.563 I.137 J2.428 E2.46198
G1 X44.833 Y55.82 E2.516
M73 P24 R1
G1 X44.437 Y56.245 E2.57747
G2 X44.159 Y57.181 I1.862 J1.061 E2.68157
G1 X44.155 Y64.315 E3.43555
G2 X44.304 Y65.125 I5.176 J-.53 E3.52268
G2 X44.872 Y65.809 I2.103 J-1.169 E3.61729
G1 X45.522 Y66.211 E3.69806
G3 X44.612 Y66.201 I-.43 J-2.308 E3.79491
G3 X43.998 Y65.743 I.645 J-1.503 E3.87663
G3 X43.684 Y64.856 I1.744 J-1.116 E3.97694
G1 X43.662 Y64.315 E4.03421
G1 X43.663 Y57.181 E4.78819
G1 X43.728 Y55.011 E5.01774
G1 X43.838 Y54.525 E5.07036
G1 X44.207 Y54.035 E5.13515
G3 X45.345 Y53.718 I.971 J1.282 E5.26308
G1 X55.038 Y53.718 E6.28756
G1 X55.472 Y53.835 E6.33516
G3 X56.036 Y54.321 I-.67 J1.347 E6.41466
G3 X56.282 Y55.028 I-1.104 J.781 E6.49492
G2 X56.331 Y57.289 I33.732 J.401 E6.73397
G1 X56.338 Y64.316 E7.47674
G3 X56.198 Y65.395 I-3.488 J.095 E7.59213
G1 X55.937 Y65.835 E7.64624
G3 X55.923 Y65.848 I-1.209 J-1.179 E7.64827
M73 P25 R1
G1 X56.311 Y66.235 F12000
;TYPE:Overhang perimeter
;WIDTH:0.6
;HEIGHT:0.6
G1 F4244.131
G3 X55.395 Y66.784 I-1.467 J-1.408 E7.77523
G1 X54.898 Y66.853 E7.83421
G1 X45.108 Y66.853 E8.98511
G3 X44.196 Y66.627 I.245 J-2.938 E9.09602
G3 X43.218 Y65.4 I.97 J-1.776 E9.28539
G1 X43.147 Y64.898 E9.34501
G1 X43.147 Y55.108 E10.49591
G1 X43.246 Y54.48 E10.57057
G1 X43.405 Y54.123 E10.6165
G1 X43.794 Y53.643 E10.68921
G3 X44.883 Y53.159 I1.515 J1.944 E10.83063
G1 X55.111 Y53.159 E12.03299
G1 X55.703 Y53.318 E12.10499
G1 X56.21 Y53.648 E12.17615
G1 X56.595 Y54.123 E12.24802
G3 X56.841 Y55.028 I-1.957 J1.019 E12.35906
G1 X56.853 Y64.893 E13.51867
G3 X56.629 Y65.801 I-2.98 J-.255 E13.62907
G3 X56.311 Y66.235 I-1.785 J-.974 E13.69255
;SEAM:56.311:66.235
G92 E0
G10 ; retract
G1 X55.938 Y65.836 F12000
G1 X55.465 Y65.493
M73 P26 R1
G1 X55.409 Y65.571
G1 X55.077 Y65.778
G1 X54.727 Y65.92
G1 X54.653 Y65.937
G1 X54.556 Y65.514
G11 ; unretract
;TYPE:External perimeter
;WIDTH:0.629999
;HEIGHT:0.437499
G1 F5116.223
G1 X54.98 Y65.208 E.05101
G1 X55.244 Y64.77 E.10082
G1 X55.33 Y64.317 E.14585
G1 X55.33 Y57.289 E.8311
G1 X55.234 Y56.809 E.8789
G1 X54.932 Y56.354 E.93215
G1 X54.469 Y56.06 E.98554
G1 X54.016 Y55.974 E1.03058
G1 X45.984 Y55.974 E1.81375
G1 X45.531 Y56.06 E1.85879
G1 X45.076 Y56.343 E1.91102
G1 X44.824 Y56.683 E1.95222
G1 X44.675 Y57.182 E2.003
G1 X44.67 Y64.315 E2.69862
G1 X44.779 Y64.839 E2.75075
G1 X45.068 Y65.251 E2.79985
G1 X45.516 Y65.536 E2.85159
G1 X45.984 Y65.631 E2.89819
G1 X54.014 Y65.631 E3.68125
G1 X54.556 Y65.514 E3.73523
;SEAM:54.556:65.514
G1 X54.168 Y66.235 F12000
;TYPE:Perimeter
;WIDTH:0.786696
G1 F3959.053
G1 X45.984 Y66.242 E4.76645
G1 X45.753 Y66.227 E4.79562
;WIDTH:0.841868
G1 F3667.028
G1 X45.522 Y66.211 E4.82713
G92 E0
G10 ; retract
G1 X45.522 Y66.39 F12000
G1 X43.704 Y64.869
G1 X43.704 Y55.672
M73 P27 R1
G1 X43.801 Y55.672
G11 ; unretract
;TYPE:Solid infill
;WIDTH:0.59075
G1 F5393.178
G1 X45.293 Y54.18 E.17464
G1 X46.115 Y54.18 E.23278
G1 X45.211 Y55.084 E.33191
G1 X45.97 Y54.953 E.38557
G1 X46.163 Y54.953 E.39318
G1 X46.937 Y54.18 E.47554
G1 X47.758 Y54.18 E.53368
G1 X46.984 Y54.955 E.61621
G1 X47.804 Y54.956 E.67423
G1 X48.58 Y54.18 E.75694
